X:39
T:Knees and Elbows. Ru2.039
%%VWML:RutherfordVol2-2249-p20-0
F:http://www.vwml.org/record/RutherfordVol2/2249/p20
B:RUTHERFORD Complete Collection of 200 Country Dances Vol.2; 1759.
Z:vmp.Mike Hicken 2015 www.village-music-project.org.uk
M:2/4
Q:1/4=100
K:A
A2 EA|B2 EB|c2 (A/B/c//d//e//f//g//)|a2 gf|ecBA|GB Ed|(c/d/e) dc|{c}B4 :|
|:ec2A|fd2B|ge2c|a2 gf|egbg|ecdf|ecdB|{B}A4 :|
|: ce E2|Bd E2|cAec|c2B2|c2 (A/B/c//d//e//f//g//)|a2 gf|ecdB|A4 :|
W:
W: First Cu: foot to the 2d Wo: & hands round 3 .|  the
W: same to the 2d Man :|  cross over two Cu: .|.  lead up to the
W: top & cast off :||:  hands round 4 with 3d Cu: .||.  right &
W: (le)ft at top :|
T:Lets begin again. Ru2.040
L:1/8
B:RUTHERFORD Complete Collection of 200 Country Dances Vol.2; 1759.
Z:vmp.Mike Hicken 2015 www.village-music-project.org.uk
M:6/8
Q:3/8=110
K:G
g3 dcB|cBA BGD|g3 dcB|cBA G3 :|
|: gdB gdB|AFD AFD|gdB gdB|cAF G3 :|
B3 AcA|BdB AFD|B3 Ace|dBF G3 :|
W:
W: First Cu: foot to the 2d Wo: without turn-
W: ing .|  the same to the 2 Man :|  lead down
W: one Cu: .|.  Hands round 4 with the 3d Cu: :|
W: lead to the top cast off & turn your
W: Partner :|
